X: 75
T: No_78_Pleasure_Dance_Song_(a).krn
N: Derived from No_78_Pleasure_Dance_Song_(a).krn
%%abc-version 2.0
%%abcx-abcm2ps-target-version 5.9.1 (29 Sep 2008)
%%abc-creator hum2abc beta
%%abcx-conversion-date 2019/03/15 08:25:36
%%humdrum-veritas 1819616823
%%humdrum-veritas-data 3472807181
%%linebreak <none>
%%barnumbers 0
L: 1/16
M: 2/4
K: C clef=bass
[K:clef=bass][M:2/4]A,3E, A,2 (3G,A,G, | 
E,2D,D,D,4 | 
A,3E, A,2 (3G,A,G, | 
E,2D,D, D,2 z2 | 
E,3C, E,2 (3D,E,D, | 
C,2A,,A,, A,,2 z2 | 
E,3C, E,2 (3D,E,D, | 
C,2A,,A,, A,,2 z C, | 
[M:3/4]D,2C,A,, C,2A,,A,, A,,2 z2 | 
[M:2/4]C,2A,,A,,A,,4 | 
A,,2A,,2A,,4- | 
A,,4A,,2 z2 :|]  



% FRACTION = 0.499268BUT SHOULD BE 0
